X: 36701
T: She's Sweetest
R: waltz
M: 3/4
K: Aminor
A2eAe2|ed cd ec|A2cA c2|GE DE G2|
A2cAc2|dc de ga|e3f ed|ce dc Bc:|
A3d- de|d4cd|e2g2ga|g4ga|
ge de ga|ge de gd|e2a2ag|a4gd|
e2ge dc|d2e2g2|B3c BG|E2 GE G2|
A3c- cc|dc de ga|e3f ed|ce dc Bc|

